Sources/FrostedUI/Resources/Icons.xcassets/inbox20.imageset/inbox-20.svg

<svg width="20" height="20" viewBox="0 0 20 20" fill="none" xmlns="http://www.w3.org/2000/svg" data-fui-icon="true">
  <g clip-path="url(#clip0_3954_13)">
    <path
      d="M16.1709 0.25C18.1475 0.25 19.75 1.85252 19.75 3.8291V16.1709C19.75 18.1475 18.1475 19.75 16.1709 19.75H3.8291C1.85252 19.75 0.25 18.1475 0.25 16.1709V3.8291C0.25 1.85252 1.85252 0.25 3.8291 0.25H16.1709ZM1.75 16.1709C1.75 17.3191 2.68095 18.25 3.8291 18.25H16.1709C17.3191 18.25 18.25 17.3191 18.25 16.1709V12.5498H13.8135C13.4465 14.273 11.843 15.5498 10 15.5498C8.15697 15.5498 6.55355 14.273 6.18652 12.5498H1.75V16.1709ZM3.8291 1.75C2.68095 1.75 1.75 2.68095 1.75 3.8291V11.0498H6.85742C7.2715 11.0499 7.60732 11.3857 7.60742 11.7998C7.60742 12.9958 8.66016 14.0498 10 14.0498C11.3398 14.0498 12.3926 12.9958 12.3926 11.7998C12.3927 11.3857 12.7285 11.0499 13.1426 11.0498H18.25V3.8291C18.25 2.68095 17.3191 1.75 16.1709 1.75H3.8291Z"
      fill="currentColor"
    />
  </g>
  <defs>
    <clipPath id="clip0_3954_13"><path fill="currentColor" d="M0 0H20V20H0z" /></clipPath>
  </defs>
</svg>

<svg xmlns="http://www.w3.org/2000/svg" width="20" height="20" fill="none" data-fui-icon="true" viewBox="0 0 20 20"><g clip-path="url(#a)"><path fill="currentColor" d="M16.17.25a3.58 3.58 0 0 1 3.58 3.58v12.34a3.58 3.58 0 0 1-3.58 3.58H3.83a3.58 3.58 0 0 1-3.58-3.58V3.83A3.58 3.58 0 0 1 3.83.25zM1.75 16.17a2.08 2.08 0 0 0 2.08 2.08h12.34a2.08 2.08 0 0 0 2.08-2.08v-3.62h-4.437c-.367 1.723-1.97 3-3.813 3s-3.446-1.277-3.813-3H1.75zM3.83 1.75a2.08 2.08 0 0 0-2.08 2.08v7.22h5.107a.75.75 0 0 1 .75.75c0 1.196 1.053 2.25 2.393 2.25s2.393-1.054 2.393-2.25a.75.75 0 0 1 .75-.75h5.107V3.83a2.08 2.08 0 0 0-2.08-2.08z"/></g><defs><clipPath id="a"><path fill="currentColor" d="M0 0h20v20H0z"/></clipPath></defs></svg>
